X: 4
T: Bryllupsmarch I
O: Denmark
C: Trad Himmerland (Denmark)
Z: 2001 John Chambers <jc:trillian.mit.edu>
M: 6/8
L: 1/8
K: G
  zD \
| "G"GBD GBd | g2B    BAB | "D7"c2A AGA | "G"B2G G2D \
| "G"GBD GBd | g2B    BAB | "D7"c2A def | "G"g2g g   :|
|:ag \
| "C"e2c c2e | "G"edc B2d | "D7"dcA def | "G"g2g gag \
| "C"e2c c2e | "G"edc B2d | "D7"dcA def | "G"g2g g   :|
